Numix/24/emotes/face-in-love.svg

<?xml version="1.0" encoding="UTF-8" standalone="no"?>
<svg
   xmlns:dc="http://purl.org/dc/elements/1.1/"
   xmlns:cc="http://creativecommons.org/ns#"
   xmlns:rdf="http://www.w3.org/1999/02/22-rdf-syntax-ns#"
   xmlns:svg="http://www.w3.org/2000/svg"
   xmlns="http://www.w3.org/2000/svg"
   xmlns:sodipodi="http://sodipodi.sourceforge.net/DTD/sodipodi-0.dtd"
   xmlns:inkscape="http://www.inkscape.org/namespaces/inkscape"
   width="24px"
   height="24px"
   viewBox="0 0 18 18"
   version="1.1"
   id="svg972"
   inkscape:version="0.91 r"
   sodipodi:docname="face-in-love.svg">
  <metadata
     id="metadata987">
    <rdf:RDF>
      <cc:Work
         rdf:about="">
        <dc:format>image/svg+xml</dc:format>
        <dc:type
           rdf:resource="http://purl.org/dc/dcmitype/StillImage" />
      </cc:Work>
    </rdf:RDF>
  </metadata>
  <defs
     id="defs985" />
  <sodipodi:namedview
     pagecolor="#ffffff"
     bordercolor="#666666"
     borderopacity="1"
     objecttolerance="10"
     gridtolerance="10"
     guidetolerance="10"
     inkscape:pageopacity="0"
     inkscape:pageshadow="2"
     inkscape:window-width="640"
     inkscape:window-height="480"
     id="namedview983" />
  <g
     id="surface1">
    <path
       style=" stroke:none;fill-rule:nonzero;fill:rgb(100%,85.490196%,36.862745%);fill-opacity:1;"
       d="M 15.75 9 C 15.75 12.210938 12.726562 14.8125 9 14.8125 C 5.273438 14.8125 2.25 12.210938 2.25 9 C 2.25 5.789062 5.273438 3.1875 9 3.1875 C 12.726562 3.1875 15.75 5.789062 15.75 9 Z M 15.75 9 "
       id="path975" />
    <path
       style=" stroke:none;fill-rule:nonzero;fill:rgb(39.607843%,39.607843%,39.607843%);fill-opacity:1;"
       d="M 6.414062 10.5 C 6.625 11.582031 7.71875 12.375 9 12.375 C 10.28125 12.375 11.371094 11.582031 11.585938 10.5 L 11.222656 10.5 C 11.066406 11.144531 10.117188 11.625 9 11.625 C 7.882812 11.625 6.933594 11.144531 6.777344 10.5 Z M 6.414062 10.5 "
       id="path977" />
    <path
       style=" stroke:none;fill-rule:nonzero;fill:rgb(100%,40%,40%);fill-opacity:1;"
       d="M 6.632812 8.886719 C 6.566406 8.8125 6.40625 8.671875 6.273438 8.570312 C 5.882812 8.273438 5.828125 8.230469 5.667969 8.085938 C 5.375 7.816406 5.25 7.542969 5.25 7.175781 C 5.25 6.996094 5.261719 6.925781 5.3125 6.820312 C 5.398438 6.640625 5.523438 6.503906 5.683594 6.425781 C 5.800781 6.367188 5.855469 6.339844 6.046875 6.339844 C 6.246094 6.339844 6.285156 6.359375 6.402344 6.425781 C 6.546875 6.503906 6.695312 6.671875 6.722656 6.789062 L 6.742188 6.863281 L 6.789062 6.761719 C 7.050781 6.191406 7.882812 6.199219 8.175781 6.777344 C 8.265625 6.960938 8.277344 7.351562 8.195312 7.570312 C 8.089844 7.859375 7.886719 8.078125 7.425781 8.414062 C 7.121094 8.632812 6.78125 8.96875 6.753906 9.015625 C 6.726562 9.066406 6.753906 9.023438 6.632812 8.886719 Z M 6.632812 8.886719 "
       id="path979" />
    <path
       style=" stroke:none;fill-rule:nonzero;fill:rgb(100%,40%,40%);fill-opacity:1;"
       d="M 11.132812 8.886719 C 11.066406 8.8125 10.90625 8.671875 10.773438 8.570312 C 10.382812 8.273438 10.328125 8.230469 10.167969 8.085938 C 9.875 7.816406 9.75 7.542969 9.75 7.175781 C 9.75 6.996094 9.761719 6.925781 9.8125 6.820312 C 9.898438 6.640625 10.023438 6.503906 10.183594 6.425781 C 10.300781 6.367188 10.355469 6.339844 10.546875 6.339844 C 10.746094 6.339844 10.785156 6.359375 10.902344 6.425781 C 11.046875 6.503906 11.195312 6.671875 11.222656 6.789062 L 11.242188 6.863281 L 11.289062 6.761719 C 11.550781 6.191406 12.382812 6.199219 12.675781 6.777344 C 12.765625 6.960938 12.777344 7.351562 12.695312 7.570312 C 12.589844 7.859375 12.386719 8.078125 11.925781 8.414062 C 11.621094 8.632812 11.28125 8.96875 11.253906 9.015625 C 11.226562 9.066406 11.253906 9.023438 11.132812 8.886719 Z M 11.132812 8.886719 "
       id="path981" />
  </g>
</svg>

<svg xmlns="http://www.w3.org/2000/svg" width="24" height="24" viewBox="0 0 18 18">
 <g>
  <path d="m 15.75 9 c 0 3.211 -3.02 5.813 -6.75 5.813 c -3.727 0 -6.75 -2.602 -6.75 -5.813 c 0 -3.211 3.02 -5.813 6.75 -5.813 c 3.727 0 6.75 2.602 6.75 5.813 m 0 0" style="fill:#ffd95d;fill-opacity:1;stroke:none;fill-rule:nonzero"/>
  <path d="m 6.414 10.5 c 0.211 1.082 1.305 1.875 2.586 1.875 c 1.281 0 2.371 -0.793 2.586 -1.875 l -0.363 0 c -0.156 0.645 -1.105 1.125 -2.223 1.125 c -1.117 0 -2.066 -0.48 -2.223 -1.125 m -0.363 0" style="fill:#646464;fill-opacity:1;stroke:none;fill-rule:nonzero"/>
  <path d="m 6.633 8.887 c -0.066 -0.074 -0.227 -0.215 -0.359 -0.316 c -0.391 -0.297 -0.445 -0.34 -0.605 -0.484 c -0.293 -0.27 -0.418 -0.543 -0.418 -0.91 c 0 -0.18 0.012 -0.25 0.063 -0.355 c 0.086 -0.18 0.211 -0.316 0.371 -0.395 c 0.117 -0.059 0.172 -0.086 0.363 -0.086 c 0.199 0 0.238 0.02 0.355 0.086 c 0.145 0.078 0.293 0.246 0.32 0.363 l 0.02 0.074 l 0.047 -0.102 c 0.262 -0.57 1.094 -0.563 1.387 0.016 c 0.09 0.184 0.102 0.574 0.02 0.793 c -0.105 0.289 -0.309 0.508 -0.77 0.844 c -0.305 0.219 -0.645 0.555 -0.672 0.602 c -0.027 0.051 0 0.008 -0.121 -0.129 m 0 0" style="fill:#f66;fill-opacity:1;stroke:none;fill-rule:nonzero"/>
  <path d="m 11.133 8.887 c -0.066 -0.074 -0.227 -0.215 -0.359 -0.316 c -0.391 -0.297 -0.445 -0.34 -0.605 -0.484 c -0.293 -0.27 -0.418 -0.543 -0.418 -0.91 c 0 -0.18 0.012 -0.25 0.063 -0.355 c 0.086 -0.18 0.211 -0.316 0.371 -0.395 c 0.117 -0.059 0.172 -0.086 0.363 -0.086 c 0.199 0 0.238 0.02 0.355 0.086 c 0.145 0.078 0.293 0.246 0.32 0.363 l 0.02 0.074 l 0.047 -0.102 c 0.262 -0.57 1.094 -0.563 1.387 0.016 c 0.09 0.184 0.102 0.574 0.02 0.793 c -0.105 0.289 -0.309 0.508 -0.77 0.844 c -0.305 0.219 -0.645 0.555 -0.672 0.602 c -0.027 0.051 0 0.008 -0.121 -0.129 m 0 0" style="fill:#f66;fill-opacity:1;stroke:none;fill-rule:nonzero"/>
 </g>
</svg>
